X:793
T:Tom Sullivan's Polka
S:Bill Stewart, Aberfeldy
Z:Nigel Gatherer
M:2/4
L:1/8
K:D
A    | D/E/F/G/ AB | =cA AG   | Ad dc | d2 d>e  |
       fd       ed | cA A>B   | cA GE | D2 D   :|
d/e/ | fd       ed | cA Ad/e/ | fd ef | g2 a>g  |
       fd       ed | cA A>B   | cA GE | D2 D  :|]
<end>
<start>
